svgs/icoca.svg

<svg width="192" height="192" viewBox="0 0 192 192" fill="none" xmlns="http://www.w3.org/2000/svg">
<path d="M21 111.829C22.3333 93.3283 30.8823 76.0159 44.907 63.4151C58.9316 50.8144 77.378 43.8723 96.4917 44.0018C115.605 44.1313 133.95 51.3226 147.792 64.1121C161.634 76.9016 169.933 94.3281 171 112.845" stroke="black" stroke-width="10" stroke-linecap="round"/>
<path d="M45.161 66.2734L75.3624 72.3479" stroke="black" stroke-width="10" stroke-linecap="round"/>
<path d="M147.846 66.2734L117.644 72.3479" stroke="black" stroke-width="10" stroke-linecap="round"/>
<path d="M95.4966 148.18V148.18C91.6699 147.443 88.0333 145.935 84.808 143.748L84.3427 143.433L79.435 139.802L76.3378 137.687C75.133 136.864 73.8596 136.146 72.5318 135.542V135.542C70.5979 134.661 68.5613 134.027 66.4696 133.653L60.2502 132.54L56.2348 131.982" stroke="black" stroke-width="8" stroke-linecap="round"/>
<path d="M97.51 148.18V148.18C101.337 147.443 104.973 145.935 108.199 143.748L108.664 143.433L113.572 139.802L116.669 137.687C117.874 136.864 119.147 136.146 120.475 135.542V135.542C122.409 134.661 124.445 134.027 126.537 133.653L132.756 132.54L136.772 131.982" stroke="black" stroke-width="8" stroke-linecap="round"/>
<path d="M54.5225 125.094L59.6312 121.858C60.8773 121.068 62.0413 120.156 63.1059 119.135V119.135C64.9826 117.335 66.5274 115.219 67.6693 112.882L68.6558 110.864C69.7815 108.561 71.1583 106.39 72.7613 104.39L73.7775 103.122C74.9039 101.716 76.1451 100.406 77.4883 99.2063L78.9731 97.8798C80.6605 96.3721 82.5853 95.1535 84.6698 94.2731V94.2731C87.2003 93.2043 89.9194 92.6536 92.6663 92.6536H95.9325" stroke="black" stroke-width="10" stroke-linecap="round"/>
<path d="M137.343 125.094L132.234 121.858C130.988 121.068 129.824 120.156 128.759 119.135V119.135C126.883 117.335 125.338 115.219 124.196 112.882L123.209 110.864C122.084 108.561 120.707 106.39 119.104 104.39L118.088 103.122C116.961 101.716 115.72 100.406 114.377 99.2063L112.892 97.8798C111.205 96.3721 109.28 95.1535 107.195 94.2731V94.2731C104.665 93.2043 101.946 92.6536 99.1988 92.6536H95.9326" stroke="black" stroke-width="10" stroke-linecap="round"/>
<path d="M84.1292 115.518L88.073 118.493" stroke="black" stroke-width="6" stroke-linecap="round"/>
<path d="M107.736 115.518L103.792 118.493" stroke="black" stroke-width="6" stroke-linecap="round"/>
</svg>

<svg xmlns="http://www.w3.org/2000/svg" width="192" height="192" fill="none"><path stroke="#000" stroke-linecap="round" stroke-width="10" d="M21 111.829c1.333-18.5 9.882-35.813 23.907-48.414s32.471-19.543 51.585-19.413c19.113.13 37.458 7.32 51.3 20.11S169.933 94.328 171 112.845M45.161 66.273l30.201 6.075M147.846 66.273l-30.202 6.075"/><path stroke="#000" stroke-linecap="round" stroke-width="8" d="M95.497 148.18v0a28.7 28.7 0 0 1-10.689-4.432l-.465-.315-4.908-3.631-3.097-2.115a25.4 25.4 0 0 0-3.806-2.145v0a25.4 25.4 0 0 0-6.062-1.889l-6.22-1.113-4.015-.558M97.51 148.18v0a28.7 28.7 0 0 0 10.689-4.432l.465-.315 4.908-3.631 3.097-2.115a25.4 25.4 0 0 1 3.806-2.145v0a25.4 25.4 0 0 1 6.062-1.889l6.219-1.113 4.016-.558"/><path stroke="#000" stroke-linecap="round" stroke-width="10" d="m54.523 125.094 5.108-3.236a22 22 0 0 0 3.475-2.723v0a22.1 22.1 0 0 0 4.563-6.253l.987-2.018a34.8 34.8 0 0 1 4.105-6.474l1.017-1.268a32.5 32.5 0 0 1 3.71-3.916l1.485-1.326a20.6 20.6 0 0 1 5.697-3.607v0a20.6 20.6 0 0 1 7.996-1.62h3.267M137.343 125.094l-5.109-3.236a22 22 0 0 1-3.475-2.723v0a22.1 22.1 0 0 1-4.563-6.253l-.987-2.018a34.7 34.7 0 0 0-4.105-6.474l-1.016-1.268a32.5 32.5 0 0 0-3.711-3.916l-1.485-1.326a20.5 20.5 0 0 0-5.697-3.607v0a20.55 20.55 0 0 0-7.996-1.62h-3.266"/><path stroke="#000" stroke-linecap="round" stroke-width="6" d="m84.13 115.518 3.943 2.975M107.736 115.518l-3.944 2.975"/></svg>
